X:7010
T:The Lawland Lads Think They Are Fine
O:england
M:6/8
L:1/8
Q:180
K:D
D|:DE DFG|FAB Af2|edA FGA|BAd FFE|DDE DAB|Ade da2|gfd ABc|dAB AFD|D:|
W: D D Bm D Em D A D D Bm D G A D
W: F#
|:F2 GA2|dfe deA|GF2 ffe|dc2 deA|GF2 ddc|BF2 gf2|efd ABc|dAB AFD|D:|
W: D D A D A D D Bm D G A D


